frontend/public/res/images/intro.svg

<svg width="1440" height="525" viewBox="0 0 1440 525" fill="none" xmlns="http://www.w3.org/2000/svg"><path d="M1114.55 531.875C1332.45 531.875 1509.1 412.972 1509.1 266.298C1509.1 119.624 1332.45 0.720703 1114.55 0.720703C896.638 0.720703 719.989 119.624 719.989 266.298C719.989 412.972 896.638 531.875 1114.55 531.875Z" stroke="url(#paint0_linear_944_1730)" stroke-miterlimit="10"></path><path d="M984.874 532.621C1202.78 532.621 1379.43 413.718 1379.43 267.044C1379.43 120.37 1202.78 1.4668 984.874 1.4668C766.966 1.4668 590.318 120.37 590.318 267.044C590.318 413.718 766.966 532.621 984.874 532.621Z" stroke="url(#paint1_linear_944_1730)" stroke-miterlimit="10"></path><path d="M807.545 532.621C1025.45 532.621 1202.1 413.718 1202.1 267.044C1202.1 120.37 1025.45 1.4668 807.545 1.4668C589.638 1.4668 412.989 120.37 412.989 267.044C412.989 413.718 589.638 532.621 807.545 532.621Z" stroke="url(#paint2_linear_944_1730)" stroke-miterlimit="10"></path><path d="M630.216 532.621C848.124 532.621 1024.77 413.718 1024.77 267.044C1024.77 120.37 848.124 1.4668 630.216 1.4668C412.309 1.4668 235.66 120.37 235.66 267.044C235.66 413.718 412.309 532.621 630.216 532.621Z" stroke="url(#paint3_linear_944_1730)" stroke-miterlimit="10"></path><path d="M452.888 532.621C670.795 532.621 847.444 413.718 847.444 267.044C847.444 120.37 670.795 1.4668 452.888 1.4668C234.98 1.4668 58.3313 120.37 58.3313 267.044C58.3313 413.718 234.98 532.621 452.888 532.621Z" stroke="url(#paint4_linear_944_1730)" stroke-miterlimit="10"></path><path d="M324.324 532.621C542.232 532.621 718.881 413.718 718.881 267.044C718.881 120.37 542.232 1.4668 324.324 1.4668C106.417 1.4668 -70.2319 120.37 -70.2319 267.044C-70.2319 413.718 106.417 532.621 324.324 532.621Z" stroke="url(#paint5_linear_944_1730)" stroke-miterlimit="10"></path><path d="M-70.2101 267.044L1510.23 265.566" stroke="url(#paint6_linear_944_1730)" stroke-miterlimit="10"></path><defs><linearGradient id="paint0_linear_944_1730" x1="1114.55" y1="0.720703" x2="1114.55" y2="531.875" gradientUnits="userSpaceOnUse"><stop stop-color="white"></stop><stop offset="0.326923" stop-color="#E4E4E4" stop-opacity="0"></stop><stop offset="0.5625" stop-color="#D0D0D0" stop-opacity="0"></stop><stop offset="0.774038" stop-color="#E7E7E7" stop-opacity="0"></stop><stop offset="1" stop-color="white"></stop></linearGradient><linearGradient id="paint1_linear_944_1730" x1="984.874" y1="1.4668" x2="984.874" y2="532.621" gradientUnits="userSpaceOnUse"><stop stop-color="white"></stop><stop offset="0.326923" stop-color="#E4E4E4" stop-opacity="0"></stop><stop offset="0.5625" stop-color="#D0D0D0" stop-opacity="0"></stop><stop offset="0.774038" stop-color="#E7E7E7" stop-opacity="0"></stop><stop offset="1" stop-color="white"></stop></linearGradient><linearGradient id="paint2_linear_944_1730" x1="807.545" y1="1.4668" x2="807.545" y2="532.621" gradientUnits="userSpaceOnUse"><stop stop-color="white"></stop><stop offset="0.326923" stop-color="#E4E4E4" stop-opacity="0"></stop><stop offset="0.5625" stop-color="#D0D0D0" stop-opacity="0"></stop><stop offset="0.774038" stop-color="#E7E7E7" stop-opacity="0"></stop><stop offset="1" stop-color="white"></stop></linearGradient><linearGradient id="paint3_linear_944_1730" x1="630.216" y1="1.4668" x2="630.216" y2="532.621" gradientUnits="userSpaceOnUse"><stop stop-color="white"></stop><stop offset="0.326923" stop-color="#E4E4E4" stop-opacity="0"></stop><stop offset="0.5625" stop-color="#D0D0D0" stop-opacity="0"></stop><stop offset="0.774038" stop-color="#E7E7E7" stop-opacity="0"></stop><stop offset="1" stop-color="white"></stop></linearGradient><linearGradient id="paint4_linear_944_1730" x1="452.888" y1="1.4668" x2="452.888" y2="532.621" gradientUnits="userSpaceOnUse"><stop stop-color="white"></stop><stop offset="0.326923" stop-color="#E4E4E4" stop-opacity="0"></stop><stop offset="0.5625" stop-color="#D0D0D0" stop-opacity="0"></stop><stop offset="0.774038" stop-color="#E7E7E7" stop-opacity="0"></stop><stop offset="1" stop-color="white"></stop></linearGradient><linearGradient id="paint5_linear_944_1730" x1="324.324" y1="1.4668" x2="324.324" y2="532.621" gradientUnits="userSpaceOnUse"><stop stop-color="white"></stop><stop offset="0.326923" stop-color="#E4E4E4" stop-opacity="0"></stop><stop offset="0.5625" stop-color="#D0D0D0" stop-opacity="0"></stop><stop offset="0.774038" stop-color="#E7E7E7" stop-opacity="0"></stop><stop offset="1" stop-color="white"></stop></linearGradient><linearGradient id="paint6_linear_944_1730" x1="1521.9" y1="267.036" x2="-70.2101" y2="265.566" gradientUnits="userSpaceOnUse"><stop stop-color="white"></stop><stop offset="0.489318" stop-color="#D0D0D0" stop-opacity="0"></stop><stop offset="1" stop-color="white"></stop></linearGradient><linearGradient id="paint7_linear_944_1730" x1="611.909" y1="77" x2="611.909" y2="97" gradientUnits="userSpaceOnUse"><stop stop-color="white"></stop><stop offset="0.495192" stop-color="#D0D0D0" stop-opacity="0"></stop><stop offset="1" stop-color="white"></stop></linearGradient><linearGradient id="paint8_linear_944_1730" x1="1285.52" y1="255.921" x2="1285.52" y2="275.921" gradientUnits="userSpaceOnUse"><stop stop-color="white"></stop><stop offset="0.495192" stop-color="#D0D0D0" stop-opacity="0"></stop><stop offset="1" stop-color="white"></stop></linearGradient><linearGradient id="paint9_linear_944_1730" x1="1215.01" y1="472.37" x2="1215.01" y2="492.37" gradientUnits="userSpaceOnUse"><stop stop-color="white"></stop><stop offset="0.495192" stop-color="#D0D0D0" stop-opacity="0"></stop><stop offset="1" stop-color="white"></stop></linearGradient><linearGradient id="paint10_linear_944_1730" x1="1345.24" y1="39.5127" x2="1345.24" y2="69.3528" gradientUnits="userSpaceOnUse"><stop stop-color="white"></stop><stop offset="0.495192" stop-color="#D0D0D0" stop-opacity="0"></stop><stop offset="1" stop-color="white"></stop></linearGradient><linearGradient id="paint11_linear_944_1730" x1="357.493" y1="447.842" x2="357.493" y2="467.842" gradientUnits="userSpaceOnUse"><stop stop-color="white"></stop><stop offset="0.495192" stop-color="#D0D0D0" stop-opacity="0"></stop><stop offset="1" stop-color="white"></stop></linearGradient><linearGradient id="paint12_linear_944_1730" x1="57.6582" y1="453.842" x2="57.6582" y2="473.842" gradientUnits="userSpaceOnUse"><stop stop-color="white"></stop><stop offset="0.495192" stop-color="#D0D0D0" stop-opacity="0"></stop><stop offset="1" stop-color="white"></stop></linearGradient><linearGradient id="paint13_linear_944_1730" x1="341.813" y1="75" x2="341.813" y2="95" gradientUnits="userSpaceOnUse"><stop stop-color="white"></stop><stop offset="0.495192" stop-color="#D0D0D0" stop-opacity="0"></stop><stop offset="1" stop-color="white"></stop></linearGradient></defs></svg>

<svg width="1440" height="525" viewBox="0 0 1440 525" fill="none" xmlns="http://www.w3.org/2000/svg">
  <path d="M1114.55 531.875c217.9 0 394.55-118.903 394.55-265.577S1332.45.721 1114.55.721c-217.912 0-394.561 118.903-394.561 265.577s176.649 265.577 394.561 265.577Z" stroke="url(#a)" stroke-miterlimit="10"/>
  <path d="M984.874 532.621c217.906 0 394.556-118.903 394.556-265.577S1202.78 1.467 984.874 1.467c-217.908 0-394.556 118.903-394.556 265.577s176.648 265.577 394.556 265.577Z" stroke="url(#b)" stroke-miterlimit="10"/>
  <path d="M807.545 532.621c217.905 0 394.555-118.903 394.555-265.577S1025.45 1.467 807.545 1.467c-217.907 0-394.556 118.903-394.556 265.577s176.649 265.577 394.556 265.577Z" stroke="url(#c)" stroke-miterlimit="10"/>
  <path d="M630.216 532.621c217.908 0 394.554-118.903 394.554-265.577S848.124 1.467 630.216 1.467 235.66 120.37 235.66 267.044s176.649 265.577 394.556 265.577Z" stroke="url(#d)" stroke-miterlimit="10"/>
  <path d="M452.888 532.621c217.907 0 394.556-118.903 394.556-265.577S670.795 1.467 452.888 1.467C234.98 1.467 58.331 120.37 58.331 267.044S234.98 532.621 452.888 532.621Z" stroke="url(#e)" stroke-miterlimit="10"/>
  <path d="M324.324 532.621c217.908 0 394.557-118.903 394.557-265.577S542.232 1.467 324.324 1.467c-217.907 0-394.556 118.903-394.556 265.577s176.649 265.577 394.556 265.577Z" stroke="url(#f)" stroke-miterlimit="10"/>
  <path d="m-70.21 267.044 1580.44-1.478" stroke="url(#g)" stroke-miterlimit="10"/>
  <defs>
    <linearGradient id="a" x1="1114.55" y1=".721" x2="1114.55" y2="531.875" gradientUnits="userSpaceOnUse">
      <stop stop-color="#fff"/>
      <stop offset=".327" stop-color="#E4E4E4" stop-opacity="0"/>
      <stop offset=".563" stop-color="#D0D0D0" stop-opacity="0"/>
      <stop offset=".774" stop-color="#E7E7E7" stop-opacity="0"/>
      <stop offset="1" stop-color="#fff"/>
    </linearGradient>
    <linearGradient id="b" x1="984.874" y1="1.467" x2="984.874" y2="532.621" gradientUnits="userSpaceOnUse">
      <stop stop-color="#fff"/>
      <stop offset=".327" stop-color="#E4E4E4" stop-opacity="0"/>
      <stop offset=".563" stop-color="#D0D0D0" stop-opacity="0"/>
      <stop offset=".774" stop-color="#E7E7E7" stop-opacity="0"/>
      <stop offset="1" stop-color="#fff"/>
    </linearGradient>
    <linearGradient id="c" x1="807.545" y1="1.467" x2="807.545" y2="532.621" gradientUnits="userSpaceOnUse">
      <stop stop-color="#fff"/>
      <stop offset=".327" stop-color="#E4E4E4" stop-opacity="0"/>
      <stop offset=".563" stop-color="#D0D0D0" stop-opacity="0"/>
      <stop offset=".774" stop-color="#E7E7E7" stop-opacity="0"/>
      <stop offset="1" stop-color="#fff"/>
    </linearGradient>
    <linearGradient id="d" x1="630.216" y1="1.467" x2="630.216" y2="532.621" gradientUnits="userSpaceOnUse">
      <stop stop-color="#fff"/>
      <stop offset=".327" stop-color="#E4E4E4" stop-opacity="0"/>
      <stop offset=".563" stop-color="#D0D0D0" stop-opacity="0"/>
      <stop offset=".774" stop-color="#E7E7E7" stop-opacity="0"/>
      <stop offset="1" stop-color="#fff"/>
    </linearGradient>
    <linearGradient id="e" x1="452.888" y1="1.467" x2="452.888" y2="532.621" gradientUnits="userSpaceOnUse">
      <stop stop-color="#fff"/>
      <stop offset=".327" stop-color="#E4E4E4" stop-opacity="0"/>
      <stop offset=".563" stop-color="#D0D0D0" stop-opacity="0"/>
      <stop offset=".774" stop-color="#E7E7E7" stop-opacity="0"/>
      <stop offset="1" stop-color="#fff"/>
    </linearGradient>
    <linearGradient id="f" x1="324.324" y1="1.467" x2="324.324" y2="532.621" gradientUnits="userSpaceOnUse">
      <stop stop-color="#fff"/>
      <stop offset=".327" stop-color="#E4E4E4" stop-opacity="0"/>
      <stop offset=".563" stop-color="#D0D0D0" stop-opacity="0"/>
      <stop offset=".774" stop-color="#E7E7E7" stop-opacity="0"/>
      <stop offset="1" stop-color="#fff"/>
    </linearGradient>
    <linearGradient id="g" x1="1521.9" y1="267.036" x2="-70.21" y2="265.566" gradientUnits="userSpaceOnUse">
      <stop stop-color="#fff"/>
      <stop offset=".489" stop-color="#D0D0D0" stop-opacity="0"/>
      <stop offset="1" stop-color="#fff"/>
    </linearGradient>
  </defs>
</svg>
